public/external-logos/dropbox-logo.svg

<svg width="154" height="30" viewBox="0 0 154 30" fill="none" xmlns="http://www.w3.org/2000/svg">
<g clip-path="url(#clip0_437_1587)">
<path d="M17.864 5.63738L8.932 11.2748L17.864 16.9121L8.932 22.5495L0 16.8817L8.932 11.2443L0 5.63738L8.932 0L17.864 5.63738ZM8.8858 24.3626L17.8178 18.7252L26.7498 24.3626L17.8178 30L8.8858 24.3626ZM17.864 16.8817L26.796 11.2443L17.864 5.63738L26.7498 0L35.6818 5.63738L26.7498 11.2748L35.6818 16.9121L26.7498 22.5495L17.864 16.8817Z" fill="#0061FF"/>
<path d="M42.6888 5.63743H49.9114C54.516 5.63743 58.3198 8.27329 58.3198 14.2916V15.5562C58.3198 21.6202 54.7624 24.3474 50.05 24.3474H42.6888V5.63743ZM46.7236 9.0351V20.9345H49.819C52.437 20.9345 54.1926 19.2433 54.1926 15.48V14.4896C54.1926 10.7263 52.3446 9.0351 49.6804 9.0351C49.6804 9.0351 46.7236 9.0351 46.7236 9.0351ZM60.4604 9.21793H63.6944L64.218 12.7375C64.834 10.3454 66.4048 9.06557 69.2538 9.06557H70.2548V13.1032H68.5916C65.3114 13.1032 64.5106 14.2306 64.5106 17.4302V24.3932H60.522V9.21793H60.4604ZM71.0556 17.1103V16.6837C71.0556 11.61 74.3358 8.83703 78.8018 8.83703C83.3602 8.83703 86.548 11.61 86.548 16.6837V17.1103C86.548 22.0925 83.4526 24.7741 78.8018 24.7741C73.8584 24.7283 71.0556 22.1077 71.0556 17.1103ZM82.467 17.0646V16.6837C82.467 13.865 81.0348 12.1737 78.7556 12.1737C76.5226 12.1737 75.0442 13.7278 75.0442 16.6837V17.0646C75.0442 19.7918 76.4764 21.3459 78.7556 21.3459C81.0348 21.3002 82.467 19.7918 82.467 17.0646ZM88.6424 9.21793H91.9688L92.3538 12.0823C93.1546 10.1626 94.864 8.83703 97.3896 8.83703C101.286 8.83703 103.858 11.61 103.858 16.7446V17.1712C103.858 22.1534 101.009 24.7893 97.3896 24.7893C94.9718 24.7893 93.3086 23.7075 92.4924 21.9706V29.6344H88.5962L88.6424 9.21793ZM99.8074 17.0646V16.7294C99.8074 13.7126 98.2366 12.2195 96.1422 12.2195C93.9092 12.2195 92.4308 13.9107 92.4308 16.7294V17.0188C92.4308 19.7004 93.863 21.3916 96.096 21.3916C98.3906 21.3459 99.8074 19.8985 99.8074 17.0646ZM109.756 21.5897L109.417 24.3627H105.998V4.14429H109.894V11.8995C110.757 9.91879 112.466 8.83703 114.884 8.83703C118.549 8.88273 121.26 11.3815 121.26 16.4094V16.8817C121.26 21.9097 118.688 24.7893 114.792 24.7893C112.22 24.7283 110.557 23.5552 109.756 21.5897ZM117.163 16.8817V16.5008C117.163 13.7278 115.639 12.1737 113.498 12.1737C111.311 12.1737 109.787 13.9107 109.787 16.5465V16.8817C109.787 19.7004 111.265 21.3459 113.452 21.3459C115.793 21.3459 117.163 19.8985 117.163 16.8817ZM122.969 17.1103V16.6837C122.969 11.61 126.249 8.83703 130.715 8.83703C135.274 8.83703 138.461 11.61 138.461 16.6837V17.1103C138.461 22.0925 135.32 24.7741 130.715 24.7741C125.772 24.7283 122.969 22.1077 122.969 17.1103ZM134.411 17.0646V16.6837C134.411 13.865 132.979 12.1737 130.7 12.1737C128.467 12.1737 126.988 13.7278 126.988 16.6837V17.0646C126.988 19.7918 128.421 21.3459 130.7 21.3459C132.994 21.3002 134.411 19.7918 134.411 17.0646ZM143.682 16.5008L138.307 9.21793H142.912L146.007 13.7735L149.149 9.21793H153.707L148.256 16.4551L154 24.3627H149.488L145.977 19.3347L142.558 24.3627H137.845L143.682 16.5008Z" fill="black"/>
</g>
<defs>
<clipPath id="clip0_437_1587">
<rect width="154" height="30" fill="white"/>
</clipPath>
</defs>
</svg>

<svg width="154" height="30" fill="none" xmlns="http://www.w3.org/2000/svg"><g clip-path="url(#a)"><path d="m17.864 5.637-8.932 5.638 8.932 5.637-8.932 5.637L0 16.883l8.932-5.638L0 5.637 8.932 0l8.932 5.637ZM8.886 24.363l8.932-5.638 8.932 5.638L17.818 30l-8.932-5.637Zm8.978-7.481 8.932-5.638-8.932-5.607L26.75 0l8.932 5.637-8.932 5.638 8.932 5.637-8.932 5.637-8.886-5.667Z" fill="#0061FF"/><path d="M42.689 5.637h7.222c4.605 0 8.409 2.636 8.409 8.655v1.264c0 6.064-3.558 8.791-8.27 8.791h-7.361V5.637Zm4.035 3.398v11.9h3.095c2.618 0 4.374-1.692 4.374-5.455v-.99c0-3.764-1.848-5.455-4.513-5.455h-2.956Zm13.736.183h3.234l.524 3.52c.616-2.393 2.187-3.672 5.036-3.672h1v4.037h-1.662c-3.28 0-4.081 1.128-4.081 4.327v6.963h-3.989V9.218h-.062Zm10.596 7.892v-.426c0-5.074 3.28-7.847 7.746-7.847 4.558 0 7.746 2.773 7.746 7.847v.426c0 4.983-3.095 7.664-7.746 7.664-4.944-.046-7.746-2.666-7.746-7.664Zm11.411-.045v-.381c0-2.819-1.432-4.51-3.711-4.51-2.233 0-3.712 1.554-3.712 4.51v.38c0 2.728 1.432 4.282 3.712 4.282 2.279-.046 3.711-1.554 3.711-4.281Zm6.175-7.847h3.327l.385 2.864c.8-1.92 2.51-3.245 5.036-3.245 3.896 0 6.468 2.773 6.468 7.908v.426c0 4.982-2.849 7.618-6.468 7.618-2.418 0-4.081-1.082-4.898-2.818v7.663h-3.896l.046-20.416Zm11.165 7.847v-.336c0-3.016-1.57-4.51-3.665-4.51-2.233 0-3.711 1.692-3.711 4.51v.29c0 2.681 1.432 4.373 3.665 4.373 2.295-.046 3.711-1.494 3.711-4.327Zm9.949 4.525-.339 2.773h-3.419V4.144h3.896V11.9c.863-1.98 2.572-3.062 4.99-3.062 3.665.046 6.376 2.545 6.376 7.572v.473c0 5.028-2.572 7.907-6.468 7.907-2.572-.06-4.235-1.234-5.036-3.2Zm7.407-4.708V16.5c0-2.773-1.524-4.327-3.665-4.327-2.187 0-3.711 1.737-3.711 4.373v.335c0 2.818 1.478 4.464 3.665 4.464 2.341 0 3.711-1.448 3.711-4.464Zm5.806.228v-.426c0-5.074 3.28-7.847 7.746-7.847 4.559 0 7.746 2.773 7.746 7.847v.426c0 4.983-3.141 7.664-7.746 7.664-4.943-.046-7.746-2.666-7.746-7.664Zm11.442-.045v-.381c0-2.819-1.432-4.51-3.711-4.51-2.233 0-3.712 1.554-3.712 4.51v.38c0 2.728 1.433 4.282 3.712 4.282 2.294-.046 3.711-1.554 3.711-4.281Zm9.271-.564-5.375-7.283h4.605l3.095 4.556 3.142-4.556h4.558l-5.451 7.237L154 24.363h-4.512l-3.511-5.028-3.419 5.028h-4.713l5.837-7.862Z" fill="#000"/></g><defs><clipPath id="a"><path fill="#fff" d="M0 0h154v30H0z"/></clipPath></defs></svg>
